assets/landing_icons/custom_icons/bucket.svg

<svg width="16" height="16" viewBox="0 0 16 16" fill="none" xmlns="http://www.w3.org/2000/svg">
<path fill-rule="evenodd" clip-rule="evenodd" d="M13.8776 8L5.87759 0L4.46338 1.41421L5.75627 2.70711L0.463379 8V9.41421L6.46338 15.4142H7.87759L13.8776 9.41421V8ZM2.5847 8.70711L7.17049 4.12132L11.7563 8.70711L7.17049 13.2929L2.5847 8.70711Z" fill="#494369"/>
<path d="M12.6916 13.1548L13.8701 11.9763L15.0486 13.1548C15.6995 13.8056 15.6995 14.861 15.0486 15.5118C14.3977 16.1627 13.3425 16.1627 12.6916 15.5118C12.0407 14.861 12.0407 13.8056 12.6916 13.1548Z" fill="#494369"/>
</svg>

<svg xmlns="http://www.w3.org/2000/svg" width="16" height="16" fill="none" viewBox="0 0 16 16"><path fill="#494369" fill-rule="evenodd" d="m13.878 8-8-8-1.415 1.414 1.293 1.293L.463 8v1.414l6 6h1.415l6-6zm-11.293.707L7.17 4.121l4.586 4.586-4.586 4.586z" clip-rule="evenodd"/><path fill="#494369" d="m12.692 13.155 1.178-1.179 1.179 1.179a1.667 1.667 0 1 1-2.357 0"/></svg>
